X:1
T:Title
%%score [ ( 1 2 ) ( 3 4 ) ] { ( 5 6 ) | ( 7 8 ) }
L:1/8
Q:1/4=120
M:4/4
K:Eb
V:1 treble nm="Midi_74"
V:2 treble 
V:3 bass nm="Midi_74"
V:4 bass 
V:5 treble nm="Org."
V:6 treble 
V:7 bass 
V:8 bass 
V:1
 (B6 G2) | E4 A4 | (G4 F4) || B8 | e4 (d2 c2) | c4 =B4 | c8 || (G6 E2) | C4 F4 | (E4 D4) || E8 | %11
 A4"^William Henry Havergal\n(1793-1870)" (B2 c2) | G4 F4 | E8 |] %14
V:2
 E8 | E4 F4 | (E4 D4) || (E6 G2) | G4 F4 | E4 F4 | E8 || C8 | C4 C4 | (C4 =B,4) || (_B,6 E2) | %11
 E4 E4 | E4 D4 | E8 |] %14
V:3
 B,8 | G,4 C4 | B,8 || B,8 | C4 D4 | E4 D4 | C8 || (C6 G,2) | A,4 A,4 | G,8 || (B,6 G,2) | %11
 (A,2 E2) (_D2 C2) | B,4 A,4 | G,8 |] %14
V:4
 G,,8 | C,4 A,,4 | B,,8 || (G,6 E,2) | C,4 F,4 | G,4 G,4 | C,8 || E,8 | A,4 F,4 | G,8 || %10
 (G,6 E,2) | C,4 (G,,2 A,,2) | B,,4 B,,4 | E,8 |] %14
V:5
 B6 G2 | E4 A4 | G4 F4 || B8 | e4 d2 c2 | c4 =B4 | c8 || G6 E2 | C4 F4 | E4 D4 || E8 | %11
 A4 [_DB]2 [Cc]2 | G4 F4 | E8 |] %14
V:6
 E8 | E4 F4 | E4 D4 || E6 G2 | G4 [FA]4 | [EG]4 [DF]4 | [CE]8 || C8 | x4 C4 | C4 =B,4 || _B,6 G,2 | %11
 [A,E]4 E4 | [B,E]4 D4 | E8 |] %14
V:7
 B,8 | G,4 C4 | B,8 || B,8 | C4 x4 | x8 | G,8 || G,8 | x4 A,4 | x8 || x8 | x8 | x4 A,4 | x8 |] %14
V:8
 G,,8 | C,4 A,,4 | B,,8 || G,6 E,2 | C,4 F,4 | G,4 G,4 | C,8 || E,8 | A,4 F,4 | G,8 || G,6 E,2 | %11
 C,4 G,,2 A,,2 | B,,4 B,,4 | [E,G,]8 |] %14

